app/component-library/components/Icons/Icon/assets/add-square.svg

<svg width="24" height="24" viewBox="0 0 24 24" fill="none" xmlns="http://www.w3.org/2000/svg">
<path d="M16.4778 2H8.09366C4.45184 2 2.28076 4.17 2.28076 7.81V16.18C2.28076 19.83 4.45184 22 8.09366 22H16.4678C20.1096 22 22.2807 19.83 22.2807 16.19V7.81C22.2907 4.17 20.1197 2 16.4778 2ZM16.2877 12.75H13.0361V16C13.0361 16.41 12.696 16.75 12.2857 16.75C11.8755 16.75 11.5354 16.41 11.5354 16V12.75H8.28375C7.87355 12.75 7.53338 12.41 7.53338 12C7.53338 11.59 7.87355 11.25 8.28375 11.25H11.5354V8C11.5354 7.59 11.8755 7.25 12.2857 7.25C12.696 7.25 13.0361 7.59 13.0361 8V11.25H16.2877C16.6979 11.25 17.0381 11.59 17.0381 12C17.0381 12.41 16.6979 12.75 16.2877 12.75Z" fill="currentColor"/>
</svg>

<svg xmlns="http://www.w3.org/2000/svg" width="24" height="24" viewBox="0 0 24 24" fill="none"><path d="M16.478 2H8.094C4.452 2 2.28 4.17 2.28 7.81v8.37c0 3.65 2.17 5.82 5.813 5.82h8.374c3.642 0 5.813-2.17 5.813-5.81V7.81C22.29 4.17 20.12 2 16.478 2zm-.19 10.75h-3.252V16c0 .41-.34.75-.75.75s-.75-.34-.75-.75v-3.25H8.283c-.41 0-.75-.34-.75-.75s.34-.75.75-.75h3.251V8c0-.41.34-.75.75-.75.411 0 .751.34.751.75v3.25h3.252c.41 0 .75.34.75.75s-.34.75-.75.75z" fill="currentColor"/></svg>
